jialixishu/static/image/image_01.svg

<svg height="633pt" viewBox="0 0 363 633" width="363pt" xmlns="http://www.w3.org/2000/svg"><path d="m59.76 138.75c11.01-4.3 23.9-2.67 33.79 3.67 5.75 3.93 10.26 9.42 13.97 15.27-3.28 2.6-6.43 5.36-9.39 8.33.02-4.68.63-9.37.22-14.04-.02-2.12-2.4-3.55-4.33-2.95-5.77 1.46-10.95 4.99-14.6 9.68-8.96-.83-18.35.17-26.39 4.46-10.18 4.94-16.74 14.51-24.68 22.19-8.86 8.42-14.64 20.31-14.54 32.66-.59 19.42 13.6 38.08 32.5 42.64 6.59 2.07 13.54 1.52 20.31.87-2.33 2.39-5.15 4.91-5.17 8.55-.56 9.66 8.99 18.75 18.61 17.77 4.01-.3 6.48-3.75 8.99-6.44-.16 3.82-.59 7.64-.57 11.48.61 13.14 7.43 25.81 18.18 33.44 13.48 9.94 32.8 10.97 47.28 2.56 9.23-5.08 15.31-13.96 22.74-21.15 8.19-7.76 13.96-18.4 14.53-29.8.53-4.27-.5-8.54-.22-12.79 3.52-4.21 7.33-8.57 8.24-14.2.78-2.03-.99-4.55-3.19-4.33-4.76 0-9.47.8-14.21.99 2.71-3.01 5.45-6.05 7.46-9.59.96.25 1.92.53 2.87.81 4.83 2.21 9.01 5.54 13.07 8.91 7.01 5.95 11.25 15.06 11.11 24.28.32 9.58-3.98 18.96-10.67 25.7-10.54 11.14-21.29 22.09-31.78 33.27-8.7 8.63-16.51 18.08-25.2 26.72-1.55 1.93-4.3 3.48-4.13 6.26.36 25.68 1.74 51.35 2.09 77.03.42 6.9-5.76 13.03-12.6 12.8-6.88-.41-13.15-3.68-19.26-6.57-12.87-6-23.77-15.5-32.99-26.16-2.46-2.69-4.02-6.18-6.78-8.56-6.31 1.03-12.52 2.66-18.92 3.1-19.1 2.02-38.66-1.4-56.1-9.38v-54.38c4.81 7.08 15.5 10.86 22.79 5.28-2.03-3.81-5.57-6.37-8.59-9.32-4.67-4.45-9.24-9-14.2-13.13v-12.94c5.71 4.98 14.63 6.45 21.09 2.03-.51-1.34-1-2.75-2.09-3.74-6.3-6.11-12.79-12.02-19-18.21v-104.69c10.03-10.6 20.29-21.01 30.14-31.77 5.16-4.96 10.21-10.07 14.74-15.63 4.08-4.69 8.96-8.83 14.88-10.98m-26.58 196.54c-3.12 2.41-2.6 7.13-2.36 10.65 1.25 11.09 15.49 18.1 24.83 11.73 1.37-2.03-1.1-3.72-2.32-5.03-6.31-5.68-12.14-11.91-18.64-17.35-.38 0-1.13 0-1.51 0z" fill="#58cc02"/><path d="m116.89 195.36c.5-5.99.46-12.01.88-18.01 4.08 9.04 8.1 18.14 13.26 26.64 4.22 5.49 9.43 10.01 14.76 14.38 5.75 3.44 11.98 6.02 18.16 8.61.54.31 1.63.94 2.17 1.25l1.27.14c-12.66 2.26-27.41 1.72-37.55-7.17-7.72-6.32-12.2-15.97-12.95-25.84z" fill="#58cc02"/><g fill="#8ee000"><path d="m79.42 158.71c3.65-4.69 8.83-8.22 14.6-9.68 1.93-.6 4.31.83 4.33 2.95.41 4.67-.2 9.36-.22 14.04 2.96-2.97 6.11-5.73 9.39-8.33 3.17-.68 6.84-3.51 9.84-.97 1.78 6.7 0 13.78.41 20.63-.42 6-.38 12.02-.88 18.01-2.45-5.68-3.52-12-7.23-17.08-6.77-10.4-18.17-17.22-30.24-19.57z"/><path d="m0 301.82c6.21 6.19 12.7 12.1 19 18.21 1.09.99 1.58 2.4 2.09 3.74-6.46 4.42-15.38 2.95-21.09-2.03z"/><path d="m0 334.68c4.96 4.13 9.53 8.68 14.2 13.13 3.02 2.95 6.56 5.51 8.59 9.32-7.29 5.58-17.98 1.8-22.79-5.28z"/><path d="m33.18 335.29h1.51c6.5 5.44 12.33 11.67 18.64 17.35 1.22 1.31 3.69 3 2.32 5.03-9.34 6.37-23.58-.64-24.83-11.73-.24-3.52-.76-8.24 2.36-10.65z"/></g><path d="m30.14 165.36c4.39-5.66 9.6-10.65 14.74-15.63-4.53 5.56-9.58 10.67-14.74 15.63z" fill="#3f781c" opacity=".56"/><path d="m53.03 163.17c8.04-4.29 17.43-5.29 26.39-4.46 12.07 2.35 23.47 9.17 30.24 19.57 3.71 5.08 4.78 11.4 7.23 17.08.75 9.87 5.23 19.52 12.95 25.84 10.14 8.89 24.89 9.43 37.55 7.17 6.94.09 13.8-1.2 20.73-1.37 2.31.04 4.3 2.55 3.44 4.8-.45 2.42-3.01 5.88.6 7.03-.95-.28-1.91-.56-2.87-.81-2.01 3.54-4.75 6.58-7.46 9.59 4.74-.19 9.45-.99 14.21-.99 2.2-.22 3.97 2.3 3.19 4.33-.91 5.63-4.72 9.99-8.24 14.2-.28 4.25.75 8.52.22 12.79-.57 11.4-6.34 22.04-14.53 29.8-7.43 7.19-13.51 16.07-22.74 21.15-14.48 8.41-33.8 7.38-47.28-2.56-10.75-7.63-17.57-20.3-18.18-33.44-.02-3.84.41-7.66.57-11.48 3.58-3.88 7.23-7.68 10.93-11.44 1.2.91 2.51 1.67 3.81 2.45.2.13.6.39.81.52 1.55-3.79 2.67-7.83 2.36-11.97-.32-8.33-6.04-16.39-14.08-18.92-4.18-1.55-8.74-1.03-13.02-.21 5.35-4.61 9.93-10.04 14.82-15.13 7.81-8.22 10.47-20.89 6.52-31.54-1.02-2.82-2.48-5.45-4.18-7.91-3.9-4.89-9.05-8.96-15.09-10.82-8.65-2.92-18.6-1.7-26.27 3.27-4.88 2.96-8.39 7.57-12.3 11.63-2.88 3.14-6.14 5.99-8.39 9.65-4.69 7.45-6.22 17.01-3.46 25.44 2.26 7.99 8.19 14.68 15.47 18.55 8.11 4.08 18.13 4.46 26.4.61l1.05-.3c1.02 1.66 2.07 3.32 3.12 4.96-3.68 3.73-7.27 7.54-10.93 11.28-6.77.65-13.72 1.2-20.31-.87-18.9-4.56-33.09-23.22-32.5-42.64-.1-12.35 5.68-24.24 14.54-32.66 7.94-7.68 14.5-17.25 24.68-22.19m71.03 89c-4.68 4.29-8.74 9.2-13.17 13.73-6.25 6.31-9.36 15.43-8.69 24.25.85 6.98 3.71 13.86 8.79 18.82 6.38 6.63 15.93 9.99 25.06 8.99 7.56-.69 14.74-4.41 19.85-9.99 3.59-3.79 7.16-7.59 10.74-11.38 7.58-7.96 10.44-20.22 6.8-30.64-2.06-7.23-7.4-13.04-13.56-17.1-5.84-3.19-12.6-4.74-19.23-3.9-6.11.63-11.9 3.31-16.59 7.22z" fill="#89e219"/><path d="m55.66 179.71c7.67-4.97 17.62-6.19 26.27-3.27 6.04 1.86 11.19 5.93 15.09 10.82-5-1.46-10.91-.78-14.78 2.94-3.35 3.34-6.43 6.94-9.8 10.26-3.34 2.92-5.55 7.09-5.51 11.6-.29 8.27 7.87 15.53 16.08 14.07 7.69-.69 11.58-8.16 16.72-12.89-5.23-4.97-4.21-13.89 1.47-18.07 3.95 10.65 1.29 23.32-6.52 31.54-4.89 5.09-9.47 10.52-14.82 15.13-2.38.82-4.91 1.63-6.48 3.75-8.27 3.85-18.29 3.47-26.4-.61-7.28-3.87-13.21-10.56-15.47-18.55-2.76-8.43-1.23-17.99 3.46-25.44 2.25-3.66 5.51-6.51 8.39-9.65 3.91-4.06 7.42-8.67 12.3-11.63z" fill="#fff"/><path d="m124.06 252.17c4.69-3.91 10.48-6.59 16.59-7.22-3.51 3.72-7.07 7.4-10.63 11.06-4.44 4.33-5.43 11.76-2.22 17.07 2.89 5.15 9.37 8.06 15.12 6.56 7.32-1.55 10.89-8.87 16.1-13.48-4.55-4.86-4-12.88.86-17.31 6.16 4.06 11.5 9.87 13.56 17.1 3.64 10.42.78 22.68-6.8 30.64-3.58 3.79-7.15 7.59-10.74 11.38-5.11 5.58-12.29 9.3-19.85 9.99-9.13 1-18.68-2.36-25.06-8.99-5.08-4.96-7.94-11.84-8.79-18.82-.67-8.82 2.44-17.94 8.69-24.25 4.43-4.53 8.49-9.44 13.17-13.73z" fill="#fff"/><path d="m82.24 190.2c3.87-3.72 9.78-4.4 14.78-2.94 1.7 2.46 3.16 5.09 4.18 7.91-5.68 4.18-6.7 13.1-1.47 18.07-5.14 4.73-9.03 12.2-16.72 12.89-8.21 1.46-16.37-5.8-16.08-14.07-.04-4.51 2.17-8.68 5.51-11.6 3.37-3.32 6.45-6.92 9.8-10.26z" fill="#4b4b4b"/><path d="m140.65 244.95c6.63-.84 13.39.71 19.23 3.9-4.86 4.43-5.41 12.45-.86 17.31-5.21 4.61-8.78 11.93-16.1 13.48-5.75 1.5-12.23-1.41-15.12-6.56-3.21-5.31-2.22-12.74 2.22-17.07 3.56-3.66 7.12-7.34 10.63-11.06z" fill="#4b4b4b"/><path d="m163.95 226.98c.54.31 1.63.94 2.17 1.25-.54-.31-1.63-.94-2.17-1.25z" fill="#496c30" opacity=".49"/><path d="m79.86 241.84c4.28-.82 8.84-1.34 13.02.21 8.04 2.53 13.76 10.59 14.08 18.92.31 4.14-.81 8.18-2.36 11.97-.21-.13-.61-.39-.81-.52-1.23-6.11-3.97-11.78-7.22-17.05-2.25-3.64-6.45-5.18-10.13-6.92-3.81-1.62-7.71-3.85-12.01-3.16l-1.05.3c1.57-2.12 4.1-2.93 6.48-3.75z" fill="#ffc200"/><path d="m74.43 245.29c4.3-.69 8.2 1.54 12.01 3.16 3.68 1.74 7.88 3.28 10.13 6.92 3.25 5.27 5.99 10.94 7.22 17.05-1.3-.78-2.61-1.54-3.81-2.45-1.34-2.9-2.97-5.65-4.85-8.23-1.84-3.37-4.46-6.19-7.97-7.85-2.96-1.77-6.24-2.92-9.61-3.64-1.05-1.64-2.1-3.3-3.12-4.96z" fill="#f5970f"/><path d="m77.55 250.25c3.37.72 6.65 1.87 9.61 3.64-1.9.37-4.23.01-5.69 1.55-3.32 3.23-6.54 6.59-9.57 10.1-1.41 6.71 5.5 13.31 12.13 11.55 3.26-3.11 6.41-6.34 9.42-9.69 1.48-1.49 1.28-3.75 1.68-5.66 1.88 2.58 3.51 5.33 4.85 8.23-3.7 3.76-7.35 7.56-10.93 11.44-2.51 2.69-4.98 6.14-8.99 6.44-9.62.98-19.17-8.11-18.61-17.77.02-3.64 2.84-6.16 5.17-8.55 3.66-3.74 7.25-7.55 10.93-11.28z" fill="#f49000"/><path d="m81.47 255.44c1.46-1.54 3.79-1.18 5.69-1.55 3.51 1.66 6.13 4.48 7.97 7.85-.4 1.91-.2 4.17-1.68 5.66-3.01 3.35-6.16 6.58-9.42 9.69-2.22-5.34-6.73-9.52-12.13-11.55 3.03-3.51 6.25-6.87 9.57-10.1z" fill="#a15903"/><path d="m71.9 265.54c5.4 2.03 9.91 6.21 12.13 11.55-6.63 1.76-13.54-4.84-12.13-11.55z" fill="#ffb0e4"/></svg>

<?xml version="1.0" encoding="UTF-8" ?>
<!DOCTYPE svg PUBLIC "-//W3C//DTD SVG 1.1//EN" "http://www.w3.org/Graphics/SVG/1.1/DTD/svg11.dtd">
<svg width="363pt" height="633pt" viewBox="0 0 363 633" version="1.1" xmlns="http://www.w3.org/2000/svg">
<g id="#58cc02ff">
<path fill="#58cc02" opacity="1.00" d=" M 59.76 138.75 C 70.77 134.45 83.66 136.08 93.55 142.42 C 99.30 146.35 103.81 151.84 107.52 157.69 C 104.24 160.29 101.09 163.05 98.13 166.02 C 98.15 161.34 98.76 156.65 98.35 151.98 C 98.33 149.86 95.95 148.43 94.02 149.03 C 88.25 150.49 83.07 154.02 79.42 158.71 C 70.46 157.88 61.07 158.88 53.03 163.17 C 42.85 168.11 36.29 177.68 28.35 185.36 C 19.49 193.78 13.71 205.67 13.81 218.02 C 13.22 237.44 27.41 256.10 46.31 260.66 C 52.90 262.73 59.85 262.18 66.62 261.53 C 64.29 263.92 61.47 266.44 61.45 270.08 C 60.89 279.74 70.44 288.83 80.06 287.85 C 84.07 287.55 86.54 284.10 89.05 281.41 C 88.89 285.23 88.46 289.05 88.48 292.89 C 89.09 306.03 95.91 318.70 106.66 326.33 C 120.14 336.27 139.46 337.30 153.94 328.89 C 163.17 323.81 169.25 314.93 176.68 307.74 C 184.87 299.98 190.64 289.34 191.21 277.94 C 191.74 273.67 190.71 269.40 190.99 265.15 C 194.51 260.94 198.32 256.58 199.23 250.95 C 200.01 248.92 198.24 246.40 196.04 246.62 C 191.28 246.62 186.57 247.42 181.83 247.61 C 184.54 244.60 187.28 241.56 189.29 238.02 C 190.25 238.27 191.21 238.55 192.16 238.83 C 196.99 241.04 201.17 244.37 205.23 247.74 C 212.24 253.69 216.48 262.80 216.34 272.02 C 216.66 281.60 212.36 290.98 205.67 297.72 C 195.13 308.86 184.38 319.81 173.89 330.99 C 165.19 339.62 157.38 349.07 148.69 357.71 C 147.14 359.64 144.39 361.19 144.56 363.97 C 144.92 389.65 146.30 415.32 146.65 441.00 C 147.07 447.90 140.89 454.03 134.05 453.80 C 127.17 453.39 120.90 450.12 114.79 447.23 C 101.92 441.23 91.02 431.73 81.80 421.07 C 79.34 418.38 77.78 414.89 75.02 412.51 C 68.71 413.54 62.50 415.17 56.10 415.61 C 37.00 417.63 17.44 414.21 0.00 406.23 L 0.00 351.85 C 4.81 358.93 15.50 362.71 22.79 357.13 C 20.76 353.32 17.22 350.76 14.20 347.81 C 9.53 343.36 4.96 338.81 0.00 334.68 L 0.00 321.74 C 5.71 326.72 14.63 328.19 21.09 323.77 C 20.58 322.43 20.09 321.02 19.00 320.03 C 12.70 313.92 6.21 308.01 0.00 301.82 L 0.00 197.13 C 10.03 186.53 20.29 176.12 30.14 165.36 C 35.30 160.40 40.35 155.29 44.88 149.73 C 48.96 145.04 53.84 140.90 59.76 138.75 M 33.18 335.29 C 30.06 337.70 30.58 342.42 30.82 345.94 C 32.07 357.03 46.31 364.04 55.65 357.67 C 57.02 355.64 54.55 353.95 53.33 352.64 C 47.02 346.96 41.19 340.73 34.69 335.29 C 34.31 335.29 33.56 335.29 33.18 335.29 Z" />
<path fill="#58cc02" opacity="1.00" d=" M 116.89 195.36 C 117.39 189.37 117.35 183.35 117.77 177.35 C 121.85 186.39 125.87 195.49 131.03 203.99 C 135.25 209.48 140.46 214.00 145.79 218.37 C 151.54 221.81 157.77 224.39 163.95 226.98 C 164.49 227.29 165.58 227.92 166.12 228.23 L 167.39 228.37 C 154.73 230.63 139.98 230.09 129.84 221.20 C 122.12 214.88 117.64 205.23 116.89 195.36 Z" />
</g>
<g id="#8ee000ff">
<path fill="#8ee000" opacity="1.00" d=" M 79.42 158.71 C 83.07 154.02 88.25 150.49 94.02 149.03 C 95.95 148.43 98.33 149.86 98.35 151.98 C 98.76 156.65 98.15 161.34 98.13 166.02 C 101.09 163.05 104.24 160.29 107.52 157.69 C 110.69 157.01 114.36 154.18 117.36 156.72 C 119.14 163.42 117.36 170.50 117.77 177.35 C 117.35 183.35 117.39 189.37 116.89 195.36 C 114.44 189.68 113.37 183.36 109.66 178.28 C 102.89 167.88 91.49 161.06 79.42 158.71 Z" />
<path fill="#8ee000" opacity="1.00" d=" M 0.00 301.82 C 6.21 308.01 12.70 313.92 19.00 320.03 C 20.09 321.02 20.58 322.43 21.09 323.77 C 14.63 328.19 5.71 326.72 0.00 321.74 L 0.00 301.82 Z" />
<path fill="#8ee000" opacity="1.00" d=" M 0.00 334.68 C 4.96 338.81 9.53 343.36 14.20 347.81 C 17.22 350.76 20.76 353.32 22.79 357.13 C 15.50 362.71 4.81 358.93 0.00 351.85 L 0.00 334.68 Z" />
<path fill="#8ee000" opacity="1.00" d=" M 33.18 335.29 C 33.56 335.29 34.31 335.29 34.69 335.29 C 41.19 340.73 47.02 346.96 53.33 352.64 C 54.55 353.95 57.02 355.64 55.65 357.67 C 46.31 364.04 32.07 357.03 30.82 345.94 C 30.58 342.42 30.06 337.70 33.18 335.29 Z" />
</g>
<g id="#3f781c90">
<path fill="#3f781c" opacity="0.56" d=" M 30.14 165.36 C 34.53 159.70 39.74 154.71 44.88 149.73 C 40.35 155.29 35.30 160.40 30.14 165.36 Z" />
</g>
<g id="#89e219ff">
<path fill="#89e219" opacity="1.00" d=" M 53.03 163.17 C 61.07 158.88 70.46 157.88 79.42 158.71 C 91.49 161.06 102.89 167.88 109.66 178.28 C 113.37 183.36 114.44 189.68 116.89 195.36 C 117.64 205.23 122.12 214.88 129.84 221.20 C 139.98 230.09 154.73 230.63 167.39 228.37 C 174.33 228.46 181.19 227.17 188.12 227.00 C 190.43 227.04 192.42 229.55 191.56 231.80 C 191.11 234.22 188.55 237.68 192.16 238.83 C 191.21 238.55 190.25 238.27 189.29 238.02 C 187.28 241.56 184.54 244.60 181.83 247.61 C 186.57 247.42 191.28 246.62 196.04 246.62 C 198.24 246.40 200.01 248.92 199.23 250.95 C 198.32 256.58 194.51 260.94 190.99 265.15 C 190.71 269.40 191.74 273.67 191.21 277.94 C 190.64 289.34 184.87 299.98 176.68 307.74 C 169.25 314.93 163.17 323.81 153.94 328.89 C 139.46 337.30 120.14 336.27 106.66 326.33 C 95.91 318.70 89.09 306.03 88.48 292.89 C 88.46 289.05 88.89 285.23 89.05 281.41 C 92.63 277.53 96.28 273.73 99.98 269.97 C 101.18 270.88 102.49 271.64 103.79 272.42 C 103.99 272.55 104.39 272.81 104.60 272.94 C 106.15 269.15 107.27 265.11 106.96 260.97 C 106.64 252.64 100.92 244.58 92.88 242.05 C 88.70 240.50 84.14 241.02 79.86 241.84 C 85.21 237.23 89.79 231.80 94.68 226.71 C 102.49 218.49 105.15 205.82 101.20 195.17 C 100.18 192.35 98.72 189.72 97.02 187.26 C 93.12 182.37 87.97 178.30 81.93 176.44 C 73.28 173.52 63.33 174.74 55.66 179.71 C 50.78 182.67 47.27 187.28 43.36 191.34 C 40.48 194.48 37.22 197.33 34.97 200.99 C 30.28 208.44 28.75 218.00 31.51 226.43 C 33.77 234.42 39.70 241.11 46.98 244.98 C 55.09 249.06 65.11 249.44 73.38 245.59 L 74.43 245.29 C 75.45 246.95 76.50 248.61 77.55 250.25 C 73.87 253.98 70.28 257.79 66.62 261.53 C 59.85 262.18 52.90 262.73 46.31 260.66 C 27.41 256.10 13.22 237.44 13.81 218.02 C 13.71 205.67 19.49 193.78 28.35 185.36 C 36.29 177.68 42.85 168.11 53.03 163.17 M 124.06 252.17 C 119.38 256.46 115.32 261.37 110.89 265.90 C 104.64 272.21 101.53 281.33 102.20 290.15 C 103.05 297.13 105.91 304.01 110.99 308.97 C 117.37 315.60 126.92 318.96 136.05 317.96 C 143.61 317.27 150.79 313.55 155.90 307.97 C 159.49 304.18 163.06 300.38 166.64 296.59 C 174.22 288.63 177.08 276.37 173.44 265.95 C 171.38 258.72 166.04 252.91 159.88 248.85 C 154.04 245.66 147.28 244.11 140.65 244.95 C 134.54 245.58 128.75 248.26 124.06 252.17 Z" />
</g>
<g id="#ffffffff">
<path fill="#ffffff" opacity="1.00" d=" M 55.66 179.71 C 63.33 174.74 73.28 173.52 81.93 176.44 C 87.97 178.30 93.12 182.37 97.02 187.26 C 92.02 185.80 86.11 186.48 82.24 190.20 C 78.89 193.54 75.81 197.14 72.44 200.46 C 69.10 203.38 66.89 207.55 66.93 212.06 C 66.64 220.33 74.80 227.59 83.01 226.13 C 90.70 225.44 94.59 217.97 99.73 213.24 C 94.50 208.27 95.52 199.35 101.20 195.17 C 105.15 205.82 102.49 218.49 94.68 226.71 C 89.79 231.80 85.21 237.23 79.86 241.84 C 77.48 242.66 74.95 243.47 73.38 245.59 C 65.11 249.44 55.09 249.06 46.98 244.98 C 39.70 241.11 33.77 234.42 31.51 226.43 C 28.75 218.00 30.28 208.44 34.97 200.99 C 37.22 197.33 40.48 194.48 43.36 191.34 C 47.27 187.28 50.78 182.67 55.66 179.71 Z" />
<path fill="#ffffff" opacity="1.00" d=" M 124.06 252.17 C 128.75 248.26 134.54 245.58 140.65 244.95 C 137.14 248.67 133.58 252.35 130.02 256.01 C 125.58 260.34 124.59 267.77 127.80 273.08 C 130.69 278.23 137.17 281.14 142.92 279.64 C 150.24 278.09 153.81 270.77 159.02 266.16 C 154.47 261.30 155.02 253.28 159.88 248.85 C 166.04 252.91 171.38 258.72 173.44 265.95 C 177.08 276.37 174.22 288.63 166.64 296.59 C 163.06 300.38 159.49 304.18 155.90 307.97 C 150.79 313.55 143.61 317.27 136.05 317.96 C 126.92 318.96 117.37 315.60 110.99 308.97 C 105.91 304.01 103.05 297.13 102.20 290.15 C 101.53 281.33 104.64 272.21 110.89 265.90 C 115.32 261.37 119.38 256.46 124.06 252.17 Z" />
</g>
<g id="#4b4b4bff">
<path fill="#4b4b4b" opacity="1.00" d=" M 82.24 190.20 C 86.11 186.48 92.02 185.80 97.02 187.26 C 98.72 189.72 100.18 192.35 101.20 195.17 C 95.52 199.35 94.50 208.27 99.73 213.24 C 94.59 217.97 90.70 225.44 83.01 226.13 C 74.80 227.59 66.64 220.33 66.93 212.06 C 66.89 207.55 69.10 203.38 72.44 200.46 C 75.81 197.14 78.89 193.54 82.24 190.20 Z" />
<path fill="#4b4b4b" opacity="1.00" d=" M 140.65 244.95 C 147.28 244.11 154.04 245.66 159.88 248.85 C 155.02 253.28 154.47 261.30 159.02 266.16 C 153.81 270.77 150.24 278.09 142.92 279.64 C 137.17 281.14 130.69 278.23 127.80 273.08 C 124.59 267.77 125.58 260.34 130.02 256.01 C 133.58 252.35 137.14 248.67 140.65 244.95 Z" />
</g>
<g id="#496c307c">
<path fill="#496c30" opacity="0.49" d=" M 163.95 226.98 C 164.49 227.29 165.58 227.92 166.12 228.23 C 165.58 227.92 164.49 227.29 163.95 226.98 Z" />
</g>
<g id="#ffc200ff">
<path fill="#ffc200" opacity="1.00" d=" M 79.86 241.84 C 84.14 241.02 88.70 240.50 92.88 242.05 C 100.92 244.58 106.64 252.64 106.96 260.97 C 107.27 265.11 106.15 269.15 104.60 272.94 C 104.39 272.81 103.99 272.55 103.79 272.42 C 102.56 266.31 99.82 260.64 96.57 255.37 C 94.32 251.73 90.12 250.19 86.44 248.45 C 82.63 246.83 78.73 244.60 74.43 245.29 L 73.38 245.59 C 74.95 243.47 77.48 242.66 79.86 241.84 Z" />
</g>
<g id="#f5970fff">
<path fill="#f5970f" opacity="1.00" d=" M 74.43 245.29 C 78.73 244.60 82.63 246.83 86.44 248.45 C 90.12 250.19 94.32 251.73 96.57 255.37 C 99.82 260.64 102.56 266.31 103.79 272.42 C 102.49 271.64 101.18 270.88 99.98 269.97 C 98.64 267.07 97.01 264.32 95.13 261.74 C 93.29 258.37 90.67 255.55 87.16 253.89 C 84.20 252.12 80.92 250.97 77.55 250.25 C 76.50 248.61 75.45 246.95 74.43 245.29 Z" />
</g>
<g id="#f49000ff">
<path fill="#f49000" opacity="1.00" d=" M 77.55 250.25 C 80.92 250.97 84.20 252.12 87.16 253.89 C 85.26 254.26 82.93 253.90 81.47 255.44 C 78.15 258.67 74.93 262.03 71.90 265.54 C 70.49 272.25 77.40 278.85 84.03 277.09 C 87.29 273.98 90.44 270.75 93.45 267.40 C 94.93 265.91 94.73 263.65 95.13 261.74 C 97.01 264.32 98.64 267.07 99.98 269.97 C 96.28 273.73 92.63 277.53 89.05 281.41 C 86.54 284.10 84.07 287.55 80.06 287.85 C 70.44 288.83 60.89 279.74 61.45 270.08 C 61.47 266.44 64.29 263.92 66.62 261.53 C 70.28 257.79 73.87 253.98 77.55 250.25 Z" />
</g>
<g id="#a15903ff">
<path fill="#a15903" opacity="1.00" d=" M 81.47 255.44 C 82.93 253.90 85.26 254.26 87.16 253.89 C 90.67 255.55 93.29 258.37 95.13 261.74 C 94.73 263.65 94.93 265.91 93.45 267.40 C 90.44 270.75 87.29 273.98 84.03 277.09 C 81.81 271.75 77.30 267.57 71.90 265.54 C 74.93 262.03 78.15 258.67 81.47 255.44 Z" />
</g>
<g id="#ffb0e4ff">
<path fill="#ffb0e4" opacity="1.00" d=" M 71.90 265.54 C 77.30 267.57 81.81 271.75 84.03 277.09 C 77.40 278.85 70.49 272.25 71.90 265.54 Z" />
</g>
</svg>
